X:3358
T:Constant Couple,The. HSJJ.097
M:2/4
L:1/8
Q:250
S:HSJ Jackson,Wyresdale,Lancs.1823
R:Misc.
O:England
A:Lancashire
H:1823
Z:Chris Partington.
K:C
g2ec|f2dB|ceAd|cBAG|AcBd|cede|faAd|cBAG|!
g2ec|f2dB|ceAd|cBAG|ABcA|Bcde|fdcB|c2C2|!
|d2BG|e2cA|f2dB|g2ec|a2fd|g2ec|f2Ad|cBAG|!
d2BG|e2cA|f2dB|g2ec|a2fd|g2ec|A2B2|c2C2|]


